X:1
T:Thy God Reigneth
T:James McGranahan, circa 1895
T:Thy God Reigneth
T:Public Domain
T:Public Domain
C:James McGranahan, circa 1895
Z:Public Domain
%%score ( 1 2 ) ( 3 4 )
L:1/8
M:4/4
K:Bb
V:1 treble 
V:2 treble 
V:3 bass 
V:4 bass 
V:1
 [DF]2 [^C=E]2 [DF]3 D | (EF)(GA) B4 | [GB]4 [EG]4 | [DF]2 [CF]2 z4 | [DF]2 [^C=E]2 [DF]3 [DF] | %5
w: 1.~Tremb- ling soul, be-|by * fears, * “Thy|reign- eth!”|Look a-|bove, and dry thy|
w: 2.~Sin- ful soul, thy|is * paid, * “Thy|reign- eth!”|On the|Lord thy sins were|
w: 3.~Seek- ing soul, to|sus * turn, * “Thy|reign- eth!”|None that|seek Him will He|
w: 4.~Join, ye saints, the|pro- * claim, * “Thy|reign- eth!”|Shout it|forth with glad ac-|
w: 5.~Church of Christ, a-|a- * wake! * “Thy|reign- eth!”|For- ward|then, fresh cour- age|
 ([EG][FA])([GB][Ac]) [Bd]4 | [Ac]4 [GB]4 | [FA]2 F2 z4 | [EF]2 [EA]2 [Ec]3 [Ec] | (BA)(GA) [DB]4 | %10
w: tears: * “Thy * God|reign- eth!”|Though thy|foes with power as-|sail, * naught * a-|
w: laid, * “Thy * God|reign- eth!”|On the|cross of Cal- va-|ry, * Je- * sus|
w: spurn, * “Thy * God|reign- eth!”|Wan- dering|sheep the Shep- herd|seeks * and, * when|
w: claim, * “Thy * God|reign- eth!”|Zi- on,|wake! the morn is|nigh; * see * it|
w: take: * “Thy * God|reign- eth!”|Soon, de-|scend- ing from His|throne, * He * shall|
 [CF]2 [FA]2 [Fc]3 [Fc] | (d c2) [C_E] (C3 E) x | [DF]2 [^C=E]2 [DF]3 [DF] | %13
w: shall pre- vail; Trust|in * Him— He’ll *|“Thy God reign- eth,|
w: blood for thee, From|all * sin to *|Thy God reign- eth,|
w: ev- er keeps, For|“He * slum- bers *|“Thy God reign- eth,|
w: yon- der sky; Loud|and * clear the *|“Thy God reign- eth,|
w: for His own; Sin|shall * then be *|“Thy God reign- eth,|
 ([EG][FA])(Bc) [^Fd]4 | [Gd]4 [_Ad]4 | [Ae]2 [Ge]6 | [Ge]4 [FA]4 | [FB]2 [FB]6 |] %18
w: Thy * God * reign-|||||
w: Thy * God * reign-|||||
w: Thy * God * reign-|||||
w: Thy * God * reign-|||||
w: Thy * God * reign-|||||
V:2
 x7 D | x4 B4 | x8 | x8 | x8 | x8 | x8 | x8 | x8 | D2 E2 x4 | x8 | =E3 F4 _E x | x8 | x2 G2 x4 | %14
w: set|God||||||||gainst thee||ne- ver fail:||eth!”|
w: debt|God||||||||shed His||set thee free,||eth!”|
w: Je-|God||||||||found, He||not nor sleeps,”||eth!”|
w: truth|God||||||||break from||watch- men cry:||eth!”|
w: wake,|God||||||||claim thee||o- ver- thrown:||eth!”|
 x8 | x8 | x8 | x8 |] %18
w: ||||
w: ||||
w: ||||
w: ||||
w: ||||
V:3
 [B,,B,]2 [B,,G,]2 [B,,F,]3 D, | (E,F,)(G,A,) B,4 | z8 | [B,,B,]2 ([E,C]2 [D,B,]2 [C,A,]2) | %4
 [B,,B,]2 [B,,G,]2 [B,,F,]3 [B,,F,] | ([E,G,][F,A,])([G,B,][A,C]) [B,D]4 | z8 | %7
 [F,C]2 ([B,D]2 [A,C]2 [G,B,]2) | [F,A,]2 [F,C]2 [F,A,]3 F, | [B,,F,]2 [B,,G,]2 [B,,F,]4 | %10
 [F,A,]2 [F,C]2 [F,A,]3 [F,A,] | G,2 C,-C, (F,E,D,C,) x | [B,,B,]2 [B,,G,]2 [B,,F,]3 [D,F,] | %13
 (G,A,)(B,A,) (A,2 C2) | [G,=B,]4 [F,B,]4 | [E,C]2 [E,C]6 | [F,A,]4 [F,E]4 | [B,,D]2 [B,,D]6 |] %18
V:4
 x7 D, | x4 B,4 | x8 | x8 | x8 | x8 | x8 | x8 | x7 F, | x8 | x8 | B,3 B, A,4 C, | x8 | %13
 E,2 E,2 D,4 | x8 | x8 | x8 | x8 |] %18

